works/GoSurf/app/img/surf-bg.svg

<svg width="86" height="350" viewBox="0 0 86 350" fill="none" xmlns="http://www.w3.org/2000/svg">
<g opacity="0.03">
<path fill-rule="evenodd" clip-rule="evenodd" d="M147.191 0.0336914C180.607 0.0336914 213.051 11.3083 238.631 31.7831V31.7823C272.047 58.5118 291.701 96.5177 294.078 138.773C296.355 180.49 280.752 221.306 251.288 250.748L153.617 347.066C149.833 350.813 143.271 350.78 139.487 347.033L43.196 250.817C13.6649 221.309 -1.97137 180.46 0.338888 138.773C2.68232 96.5202 22.37 58.5144 55.7515 31.7831C81.2986 11.3083 113.777 0.0336914 147.191 0.0336914ZM81.5669 146.908C81.5669 183.073 110.997 212.481 147.191 212.481C183.385 212.481 212.85 183.074 212.816 146.908C212.816 110.743 183.386 81.335 147.191 81.335C110.998 81.335 81.5669 110.742 81.5669 146.908Z" fill="white"/>
</g>
</svg>

<svg width="86" height="350" fill="none" xmlns="http://www.w3.org/2000/svg"><path fill-rule="evenodd" clip-rule="evenodd" d="M147.191.034c33.416 0 65.86 11.274 91.44 31.75v-.002c33.416 26.73 53.07 64.736 55.447 106.991 2.277 41.717-13.326 82.533-42.79 111.975l-97.671 96.318c-3.784 3.747-10.346 3.714-14.13-.033l-96.291-96.216C13.665 221.309-1.971 180.46.339 138.773 2.682 96.52 22.37 58.514 55.752 31.783 81.299 11.308 113.776.033 147.19.033zM81.567 146.908c0 36.165 29.43 65.573 65.624 65.573 36.194 0 65.659-29.407 65.625-65.573 0-36.165-29.43-65.573-65.625-65.573-36.193 0-65.624 29.407-65.624 65.573z" fill="#fff" opacity=".03"/></svg>
